assets/images/Mashable.svg

<svg height="416" viewBox="0 0 2425 416" width="2425" xmlns="http://www.w3.org/2000/svg"><g fill="#fff" fill-rule="evenodd" transform="translate(-59.866636 -14.010457)"><path d="m417.887242 0v269.537271l-102.633107-269.537271h-46.469061l-103.301726 269.537271v-269.537271h-105.1404303v407.607216h146.0933793l85.583308-224.906914 84.914687 224.906914h146.09338v-407.607216z" transform="matrix(1 0 0 -1 .4005 422.390178)"/><path d="m250.732345 83.5774483v29.3356847c-18.303461-21.9808692-53.823877-36.6905001-91.684461-36.6905001-45.215399 0-101.4630221 31.1743881-101.4630221 97.2005721 0 71.458719 56.2476231 95.361869 101.4630221 95.361869 39.114246 0 73.966042-12.870927 91.684461-34.851796v29.335684c0 25.658277-21.980869 43.376696-59.92503 43.376696-29.335685 0-58.671369-11.617265-82.490942-31.75943l-34.8517959 65.357564c37.9441619 32.42805 88.6756729 45.800442 133.8910719 45.800442 70.873677 0 137.484903-26.243319 137.484903-117.92778v-184.5390057zm0 75.8047457v26.243319c-9.778561 14.041011-31.75943 20.810784-52.570215 20.810784-24.404615 0-47.054103-11.032223-47.054103-34.266753 0-23.234531 22.649488-34.183177 47.054103-34.183177 20.810785 0 42.791654 7.271238 52.570215 21.395827z" transform="matrix(1 0 0 -1 484.049164 505.969317)"/><path d="m0 83.5774483 39.1142458 67.1962687c21.9808689-19.557123 69.0349722-39.699288 103.8867682-39.699288 28.082023 0 39.699288 7.939857 39.699288 20.810784 0 36.606923-171.6680788-1.253661-171.6680788 118.512822 0 51.985173 45.2153995 97.200573 126.4526798 97.200573 50.146469 0 91.68446-15.879716 123.443891-39.114246l-36.021881-66.611227c-17.718419 17.133377-51.316553 32.344473-86.753391 32.344473-22.064446 0-36.6905-8.5249-36.6905-20.142165 0-32.344473 171.083037 1.253662 171.083037-119.766484 0-56.2476222-49.477849-96.5319523-133.807495-96.5319523-53.1552569 0-107.5641758 17.718419-138.738564 45.8004416" transform="matrix(1 0 0 -1 835.575911 467.473544)"/><path d="m250.732345 0v171.751656c0 36.021881-18.972081 47.639146-48.892807 47.639146-27.496981 0-45.800442-15.294673-56.832665-28.750642v-190.64016h-94.108207v407.607216h94.108207v-148.517126c17.718419 20.810784 52.570215 43.376696 102.048064 43.376696 67.196269 0 97.785615-37.860585 97.785615-92.269503v-210.197283z" transform="matrix(1 0 0 -1 1069.433969 422.391869)"/><path d="m250.732345 83.5774483v29.3356847c-18.303461-21.9808692-53.823877-36.6905001-91.684461-36.6905001-45.215399 0-101.4630221 31.1743881-101.4630221 97.2005721 0 71.458719 56.2476231 95.361869 101.4630221 95.361869 39.114246 0 73.966042-12.870927 91.684461-34.851796v29.335684c0 25.658277-21.980869 43.376696-59.92503 43.376696-29.335685 0-58.671369-11.617265-82.490942-31.75943l-34.8517959 65.357564c37.9441619 32.42805 88.6756729 45.800442 133.8910719 45.800442 70.873677 0 137.484903-26.243319 137.484903-117.92778v-184.5390057zm0 75.8047457v26.243319c-9.778561 14.041011-31.75943 20.810784-52.570215 20.810784-24.404615 0-47.054103-11.032223-47.054103-34.266753 0-23.234531 22.649488-34.183177 47.054103-34.183177 20.810785 0 42.791654 7.271238 52.570215 21.395827z" transform="matrix(1 0 0 -1 1370.078767 505.969317)"/><path d="m0 83.5774483v407.6072157h94.1082068v-147.263464c23.2345302 29.335684 54.9939612 42.123034 87.4220112 42.123034 73.966042 0 130.130087-58.002749 130.130087-154.61828 0-100.20936-57.417707-155.2033211-130.130087-155.2033211-33.013092 0-62.933819 13.4559692-87.4220112 41.5379921v-34.1831767zm150.35583 75.8047457c37.275542 0 65.357564 27.49698 65.357564 72.04376 0 44.045316-28.082022 71.542296-65.357564 71.542296-20.142165 0-44.630358-11.032223-56.2476232-26.911938v-90.430799c11.6172652-15.879715 36.1054582-26.243319 56.2476232-26.243319z" transform="matrix(1 0 0 -1 1747.263791 505.969317)"/><path d="m2069.94515 14.7929903h94.10826v407.6072157h-94.10826z"/><path d="m0 167.154897c0 85.583307 64.1874803 154.618279 156.456983 154.618279 87.422011 0 150.940872-64.18748 150.940872-164.396841v-21.395827h-210.1972826c6.6861956-26.243318 31.1743886-48.3077647 73.8824646-48.3077647 20.810784 0 55.077538 9.1935193 72.127338 25.0732347l40.952949-61.6801571c-29.335684-26.3268962-78.228491-39.1142458-123.443891-39.1142458-91.0158411 0-160.719433 59.2564109-160.719433 155.2033219m156.456983 78.813533c-40.952949 0-56.8326646-24.404614-60.5100723-45.800441h121.6051873c-2.423746 20.810784-17.718419 45.800441-61.095115 45.800441" transform="matrix(1 0 0 -1 2177.459321 441.653116)"/></g></svg>

<?xml version="1.0" encoding="UTF-8" standalone="no"?>
<svg width="2425px" height="416px" viewBox="0 0 2425 416" version="1.1" xmlns="http://www.w3.org/2000/svg" xmlns:xlink="http://www.w3.org/1999/xlink" xmlns:sketch="http://www.bohemiancoding.com/sketch/ns">
    <!-- Generator: Sketch 3.5.2 (25235) - http://www.bohemiancoding.com/sketch -->
    <title>Mashable</title>

    <desc>Created with Sketch.</desc>
    <defs></defs>
    <g id="Page-1" stroke="none" stroke-width="1" fill="#ffffff" fill-rule="evenodd" sketch:type="MSPage">
        <g id="Mashable" sketch:type="MSLayerGroup" transform="translate(-61.000000, -15.000000)" fill="#ffffff">
            <g id="layer1" transform="translate(1.133364, 0.989543)" sketch:type="MSShapeGroup">
                <g id="g13734" transform="translate(292.921570, 213.446557) scale(1, -1) translate(-292.921570, -213.446557) translate(0.400500, 4.502936)">
                    <path d="M417.887242,0 L417.887242,269.537271 L315.254135,0 L268.785074,0 L165.483348,269.537271 L165.483348,0 L60.3429177,0 L60.3429177,407.607216 L206.436297,407.607216 L292.019605,182.700302 L376.934292,407.607216 L523.027672,407.607216 L523.027672,0 L417.887242,0 L417.887242,0 Z" id="path13736"></path>
                </g>
                <g id="g13738" transform="translate(1282.484074, 253.889881) scale(1, -1) translate(-1282.484074, -253.889881) translate(480.512510, 0.316421)">
                    <g id="g13740-Clipped">
                        <g id="g13740" transform="translate(1.168743, 0.494165)">
                            <g id="g13746" transform="translate(2.367911, 0.999859)">
                                <path d="M250.732345,83.5774483 L250.732345,112.913133 C232.428884,90.9322638 196.908468,76.2226329 159.047884,76.2226329 C113.832485,76.2226329 57.5848619,107.397021 57.5848619,173.423205 C57.5848619,244.881924 113.832485,268.785074 159.047884,268.785074 C198.16213,268.785074 233.013926,255.914147 250.732345,233.933278 L250.732345,263.268962 C250.732345,288.927239 228.751476,306.645658 190.807315,306.645658 C161.47163,306.645658 132.135946,295.028393 108.316373,274.886228 L73.4645771,340.243792 C111.408739,372.671842 162.14025,386.044234 207.355649,386.044234 C278.229326,386.044234 344.840552,359.800915 344.840552,268.116454 L344.840552,83.5774483 L250.732345,83.5774483 L250.732345,83.5774483 Z M250.732345,159.382194 L250.732345,185.625513 C240.953784,199.666524 218.972915,206.436297 198.16213,206.436297 C173.757515,206.436297 151.108027,195.404074 151.108027,172.169544 C151.108027,148.935013 173.757515,137.986367 198.16213,137.986367 C218.972915,137.986367 240.953784,145.257605 250.732345,159.382194 L250.732345,159.382194 Z" id="path13748"></path>
                            </g>
                            <g id="g13750" transform="translate(353.894658, 39.495632)">
                                <path d="M0,83.5774483 L39.1142458,150.773717 C61.0951147,131.216594 108.149218,111.074429 143.001014,111.074429 C171.083037,111.074429 182.700302,119.014286 182.700302,131.885213 C182.700302,168.492136 11.0322232,130.631552 11.0322232,250.398035 C11.0322232,302.383208 56.2476227,347.598608 137.484903,347.598608 C187.631372,347.598608 229.169363,331.718892 260.928794,308.484362 L224.906913,241.873135 C207.188494,259.006512 173.59036,274.217608 138.153522,274.217608 C116.089076,274.217608 101.463022,265.692708 101.463022,254.075443 C101.463022,221.73097 272.546059,255.329105 272.546059,134.308959 C272.546059,78.0613368 223.06821,37.7770067 138.738564,37.7770067 C85.5833071,37.7770067 31.1743882,55.4954257 0,83.5774483" id="path13752"></path>
                            </g>
                            <g id="g13754" transform="translate(587.752716, 84.577307)">
                                <path d="M250.732345,0 L250.732345,171.751656 C250.732345,207.773537 231.760264,219.390802 201.839538,219.390802 C174.342557,219.390802 156.039096,204.096129 145.006873,190.64016 L145.006873,0 L50.898666,0 L50.898666,407.607216 L145.006873,407.607216 L145.006873,259.09009 C162.725292,279.900874 197.577088,302.466786 247.054937,302.466786 C314.251206,302.466786 344.840552,264.606201 344.840552,210.197283 L344.840552,0 L250.732345,0 L250.732345,0 Z" id="path13756"></path>
                            </g>
                            <g id="g13758" transform="translate(888.397514, 0.999859)">
                                <path d="M250.732345,83.5774483 L250.732345,112.913133 C232.428884,90.9322638 196.908468,76.2226329 159.047884,76.2226329 C113.832485,76.2226329 57.5848619,107.397021 57.5848619,173.423205 C57.5848619,244.881924 113.832485,268.785074 159.047884,268.785074 C198.16213,268.785074 233.013926,255.914147 250.732345,233.933278 L250.732345,263.268962 C250.732345,288.927239 228.751476,306.645658 190.807315,306.645658 C161.47163,306.645658 132.135946,295.028393 108.316373,274.886228 L73.4645771,340.243792 C111.408739,372.671842 162.14025,386.044234 207.355649,386.044234 C278.229326,386.044234 344.840552,359.800915 344.840552,268.116454 L344.840552,83.5774483 L250.732345,83.5774483 L250.732345,83.5774483 Z M250.732345,159.382194 L250.732345,185.625513 C240.953784,199.666524 218.972915,206.436297 198.16213,206.436297 C173.757515,206.436297 151.108027,195.404074 151.108027,172.169544 C151.108027,148.935013 173.757515,137.986367 198.16213,137.986367 C218.972915,137.986367 240.953784,145.257605 250.732345,159.382194 L250.732345,159.382194 Z" id="path13760"></path>
                            </g>
                            <g id="g13762" transform="translate(1265.582538, 0.999859)">
                                <path d="M0,83.5774483 L0,491.184664 L94.1082068,491.184664 L94.1082068,343.9212 C117.342737,373.256884 149.102168,386.044234 181.530218,386.044234 C255.49626,386.044234 311.660305,328.041485 311.660305,231.425954 C311.660305,131.216594 254.242598,76.2226329 181.530218,76.2226329 C148.517126,76.2226329 118.596399,89.6786021 94.1082068,117.760625 L94.1082068,83.5774483 L0,83.5774483 L0,83.5774483 Z M150.35583,159.382194 C187.631372,159.382194 215.713394,186.879174 215.713394,231.425954 C215.713394,275.47127 187.631372,302.96825 150.35583,302.96825 C130.213665,302.96825 105.725472,291.936027 94.1082068,276.056312 L94.1082068,185.625513 C105.725472,169.745798 130.213665,159.382194 150.35583,159.382194 L150.35583,159.382194 Z" id="path13764"></path>
                            </g>
                        </g>
                    </g>
                </g>
                <path d="M2069.94515,14.7929903 L2164.05341,14.7929903 L2164.05341,422.400206 L2069.94515,422.400206 L2069.94515,14.7929903 L2069.94515,14.7929903 Z" id="path13766"></path>
                <g id="g13776" transform="translate(2344.614218, 274.498220) scale(1, -1) translate(-2344.614218, -274.498220) translate(2177.459321, 107.343324)">
                    <path d="M0,167.154897 C0,252.738204 64.1874803,321.773176 156.456983,321.773176 C243.878994,321.773176 307.397855,257.585696 307.397855,157.376335 L307.397855,135.980508 L97.2005724,135.980508 C103.886768,109.73719 128.374961,87.6727433 171.083037,87.6727433 C191.893821,87.6727433 226.160575,96.8662626 243.210375,112.745978 L284.163324,51.0658209 C254.82764,24.7389247 205.934833,11.9515751 160.719433,11.9515751 C69.7035919,11.9515751 0,71.207986 0,167.154897 M156.456983,245.96843 C115.504034,245.96843 99.6243184,221.563816 95.9469107,200.167989 L217.552098,200.167989 C215.128352,220.978773 199.833679,245.96843 156.456983,245.96843" id="path13778"></path>
                </g>
            </g>
        </g>
    </g>
</svg>
